src/22/actions/document-close.svg

<svg xmlns="http://www.w3.org/2000/svg" viewBox="0 0 22 22">
    <defs id="defs3051">
        <style type="text/css" id="current-color-scheme">
            .ColorScheme-NegativeText {
                color:#da4453;
            }
        </style>
    </defs>
    <g style="fill:currentColor;fill-opacity:1;stroke:none" class="ColorScheme-NegativeText">
        <path d="m4 3v16h1 6v-1h-6v-14h12v9h1v-10h-1-12-1"/>
        <path d="M 13.707031 14 L 13 14.707031 L 14.792969 16.5 L 13 18.292969 L 13.707031 19 L 15.5 17.207031 L 17.292969 19 L 18 18.292969 L 16.207031 16.5 L 18 14.707031 L 17.292969 14 L 15.5 15.792969 L 13.707031 14 z "/>
    </g>
</svg>

<svg xmlns="http://www.w3.org/2000/svg" viewBox="0 0 22 22"><g fill="currentColor" color="#da4453"><path d="M4 3v16h7v-1H5V4h12v9h1V3H4"/><path d="M13.707 14l-.707.707 1.793 1.793L13 18.293l.707.707 1.793-1.793L17.293 19l.707-.707-1.793-1.793L18 14.707 17.293 14 15.5 15.793 13.707 14z"/></g></svg>
